X:1
T:Partition sans titre
C:Compositeur / Arrangeur
L:1/8
M:4/4
I:linebreak $
K:D
V:1 treble nm="Violon" snm="Vln."
V:1
"D" ABAG FAde | f2 fd Adfd |"A" efed cABc |"D" ddcd"G" PB2 AF |"D" ABAG FAde | f2 fd Adfd | %6
"A" efed cABc |1"D" df"A"ec"D" dFFG :|2"D" df"A"ec"D" d2 Ad |:"D" f3 e daAa |"G" gagf e2 Pd2 | %11
"A" cdec AABc |"D" ddcd"G" PB2 Ad |"D" f3 e daAa |"G" gagf e2 Pd2 |"A" cdec AABc |1 %16
"D" df"A"ec"D" d2 Ad :|2"D" df"A"ec"D" dFFG |] %18
